icon-themes/breeze_svg/cmd/sc_glueescapedirectiontop.svg

<svg viewBox="0 0 16 16" xmlns="http://www.w3.org/2000/svg"><path d="m2 2v12h5 6 1v-1-5-6zm1 1h10v5 5h-6-4zm5 1-2 2h1v3h2v-3h1z" fill="#4d4d4d"/><path d="m8 8c-1.1045692 0-2 .8954028-2 2 0 1.104597.8954308 2 2 2 1.10457 0 2-.895403 2-2 0-1.1045972-.89543-2-2-2zm0 1c.552285 0 1 .4477014 1 1 0 .552299-.447715 1-1 1-.5522842 0-1-.447701-1-1 0-.5522986.4477158-1 1-1z" fill="#1d99f3"/></svg>

<svg xmlns="http://www.w3.org/2000/svg" viewBox="0 0 16 16">
 <path 
     style="fill:#4d4d4d" 
     d="M 2 2 L 2 14 L 7 14 L 13 14 L 14 14 L 14 13 L 14 8 L 14 2 L 2 2 z M 3 3 L 13 3 L 13 8 L 13 13 L 7 13 L 3 13 L 3 3 z M 8 4 L 6 6 L 7 6 L 7 9 L 9 9 L 9 6 L 10 6 L 8 4 z "
     />
 <path 
     style="fill:#1d99f3" 
     d="M 8 8 C 6.8954308 8 6 8.8954028 6 10 C 6 11.104597 6.8954308 12 8 12 C 9.10457 12 10 11.104597 10 10 C 10 8.8954028 9.10457 8 8 8 z M 8 9 C 8.552285 9 9 9.4477014 9 10 C 9 10.552299 8.552285 11 8 11 C 7.4477158 11 7 10.552299 7 10 C 7 9.4477014 7.4477158 9 8 9 z "
     />
 </svg>
